assets/sonr-icons/sonr.svg

<svg xmlns="http://www.w3.org/2000/svg" width="24" height="24" fill="none" viewBox="0 0 24 24"><path fill="#000" d="M15.601 3.29158 16.1372 3.82769 13.8013 6.16341 13.2651 5.62729C12.9296 5.29188 12.4745 5.10345 12 5.10345 11.5256 5.10345 11.0705 5.29187 10.7349 5.62729L5.62619 10.7357C5.46014 10.9017 5.32841 11.0988 5.23854 11.3157 5.14868 11.5327 5.10242 11.7652 5.10242 12 5.10242 12.2348 5.14868 12.4673 5.23854 12.6842 5.32841 12.9011 5.46014 13.0983 5.62619 13.2643L8.15952 15.7974 5.8195 18.1332 3.29171 15.6C2.8188 15.1273 2.44362 14.5661 2.18767 13.9484 1.93173 13.3307 1.79999 12.6686 1.79999 12 1.79999 11.3314 1.93173 10.6693 2.18767 10.0516 2.44362 9.43388 2.81877 8.87265 3.29168 8.39996L8.40044 3.29158C8.87317 2.8187 9.43444 2.44358 10.0522 2.18765 10.6699 1.93172 11.3321 1.79999 12.0007 1.79999 12.6694 1.79999 13.3315 1.93172 13.9493 2.18765 14.567 2.44358 15.1283 2.8187 15.601 3.29158ZM10.7322 18.3727C11.0677 18.7081 11.5228 18.8965 11.9972 18.8965 12.4717 18.8965 12.9268 18.7081 13.2623 18.3727L18.3711 13.2643C18.7057 12.9286 18.8937 12.4739 18.8937 12 18.8937 11.526 18.7058 11.0714 18.3711 10.7357L15.8419 8.20946 18.1778 5.87375 20.7111 8.40689C21.6646 9.36246 22.2 10.6571 22.2 12.0069 22.2 13.3567 21.6646 14.6514 20.7111 15.607L15.601 20.7153C15.1289 21.1885 14.5676 21.5634 13.9497 21.8183 13.3317 22.0731 12.6693 22.2028 12.0009 22.1999L12.0006 22.1999C11.331 22.2023 10.6676 22.0717 10.0489 21.8157 9.43014 21.5596 8.86843 21.1833 8.39633 20.7084L7.86011 20.1723 10.196 17.8365 10.7322 18.3727Z"/><path fill="#000" d="M11.3406 8.71357L8.71646 11.3375C8.35157 11.7024 8.35157 12.294 8.71646 12.6588L11.3406 15.2828C11.7055 15.6477 12.2971 15.6477 12.662 15.2828L15.2862 12.6588C15.6511 12.294 15.6511 11.7024 15.2862 11.3375L12.662 8.71357C12.2971 8.3487 11.7055 8.3487 11.3406 8.71357Z"/></svg>

<svg xmlns="http://www.w3.org/2000/svg" width="24" height="24" fill="none"><path fill="currentColor" d="m15.601 3.292.536.536-2.336 2.335-.536-.536a1.79 1.79 0 0 0-2.53 0l-5.109 5.109a1.79 1.79 0 0 0 0 2.528l2.534 2.533-2.34 2.336L3.291 15.6a5.09 5.09 0 0 1 0-7.2L8.4 3.292a5.09 5.09 0 0 1 7.201 0m-4.869 15.08a1.79 1.79 0 0 0 2.53 0l5.11-5.108a1.79 1.79 0 0 0 0-2.528l-2.53-2.527 2.336-2.335 2.533 2.533a5.097 5.097 0 0 1 0 7.2l-5.11 5.108a5.06 5.06 0 0 1-3.6 1.485 5.06 5.06 0 0 1-3.605-1.492l-.536-.536 2.336-2.335z"/><path fill="currentColor" d="m11.34 8.714-2.624 2.624a.934.934 0 0 0 0 1.32l2.625 2.625a.934.934 0 0 0 1.321 0l2.624-2.624a.934.934 0 0 0 0-1.322l-2.624-2.623a.934.934 0 0 0-1.321 0"/></svg>
